findly-builder/apps/searchassist/src/assets/icons/editor/alphabits.svg

<svg width="14" height="20" fill="none" xmlns="http://www.w3.org/2000/svg"><path d="M6 0 0 16h2l1.875-5h6.25L12 16h2L8 0H6Zm1 2.666L9.375 9h-4.75L7 2.666ZM0 18v2h14v-2H0Z" fill="#000"/></svg>

<svg width="14" height="20" viewBox="0 0 14 20" fill="none" xmlns="http://www.w3.org/2000/svg">
<path d="M6 0L0 16H2L3.875 11H10.125L12 16H14L8 0H6ZM7 2.66602L9.375 9H4.625L7 2.66602ZM0 18V20H14V18H0Z" fill="black"/>
</svg>
